**kern	**kern	**dynam
*part1	*part1	*part1
*staff2	*staff1	*
*I"Piano	*	*
*clefF4	*clefG2	*
*k[b-e-a-d-g-]	*k[b-e-a-d-g-]	*
=1	=1	=1
4CC	8r	ppp
.	16G-LL 16A-	.
.	16G-JJ 16A-	.
2AA-^	8A-'L 8e-	.
.	8e-'J 8g-	.
.	4g-' 4a-	.
=	=	=
4DD-	8r	.
.	16FLL 16A-	.
.	16FJJ 16A-	.
2AA-^	8A-'L 8d-	.
.	8d-'J 8f	.
.	4f' 4a-	.
=	=	=
4CC	8r	.
.	16G-LL 16A-	.
.	16G-JJ 16A-	.
!	!LO:TX:b:i:t=dim.	!
2AA-^	8A-'L 8e-	.
.	8e-'J 8g-	.
.	4g-' 4a-	.
=	=	=
4DD-	8r	.
.	16FLL 16A-	.
.	16FJJ 16A-	.
2AA-^	8A-'L 8d-	.
.	8d-'J 8f	.
.	4f' 4a-	.
*	*clefF4	*
=	=	=
4DD-	8r	.
.	16D-LL 16F	.
.	16D-JJ 16F	.
2AA-	8F'L 8A-	.
.	8A-'J 8d-	.
.	4d-' 4f	.
=	=	=
4DD-	8r	.
.	16D-LL 16F	.
.	16D-JJ 16F	.
2AA-	8F'L 8A-	.
.	8A-'J 8d-	.
.	4d-'; 4f	.
=	=	=
2.DD-; 2.AA- 2.D-	2.F; 2.A- 2.d- 2.f	.
==	==	==
*-	*-	*-
!!!system-decoration: {(s1,s2)}
